hackathon/svg-icons/src/components/icons/source/astronaut.svg

<svg fill="none" height="256" viewBox="0 0 256 256" width="256" xmlns="http://www.w3.org/2000/svg"><g fill="#000"><path d="m152.507 154.808-7.979-5.32c-.489-2.454-1.879-4.637-3.896-6.119 12.453-10.773 19.948-26.177 20.739-42.625.793-16.4451-5.187-32.4983-16.547-44.4162-11.358-11.9184-27.105-18.664-43.572-18.664-16.4667 0-32.2122 6.7456-43.5722 18.664-11.36 11.9194-17.3398 27.9726-16.5473 44.4162.7912 16.446 8.2865 31.85 20.739 42.625-2.0167 1.482-3.4065 3.665-3.8959 6.119l-7.9788 5.32c-7.7801.284-15.1471 3.572-20.5537 9.173s-8.4339 13.08-8.4431 20.864v46.813c0 .887.3523 1.738.9792 2.365.627.627 1.4779.979 2.3646.979h153.8132c.887 0 1.738-.352 2.365-.979.626-.627.979-1.478.979-2.365v-46.813c-.009-7.784-3.036-15.263-8.443-20.864s-12.774-8.889-20.554-9.173zm-83.468-6.744h65.653c1.846 0 3.343 1.497 3.343 3.344 0 1.846-1.497 3.343-3.343 3.343h-66.8758c-1.8466 0-3.3438-1.497-3.3438-3.343 0-1.847 1.4972-3.344 3.3438-3.344zm78.512-23.406h-63.0886c-4.0721-.012-7.9998-1.52-11.0329-4.238-3.0333-2.717-4.9633-6.455-5.4219-10.502 13.6514 5.949 28.3831 9.017 43.2744 9.012 14.411.004 28.677-2.868 41.963-8.446-1.211 4.972-3.129 9.746-5.698 14.174zm6.975-22.093c-13.57 6.368-28.378 9.661-43.365 9.643-14.9874-.018-29.7898-3.347-43.3433-9.746v-18.0026c.006-4.4142 1.7615-8.6445 4.8827-11.7659 3.1213-3.1199 7.3517-4.8754 11.7658-4.88h60.9868c6.069 8.8612 9.313 19.3537 9.303 30.0939 0 1.5644-.094 3.1166-.227 4.6576zm-106.7747-4.6576c-.0194-14.3514 5.7367-28.1071 15.9694-38.1682 10.2327-10.0627 24.0828-15.5843 38.4323-15.3233 14.348.2598 27.989 6.2829 37.849 16.7101h-55.5411c-6.1862.006-12.1182 2.466-16.4934 6.8411-4.3752 4.3737-6.8354 10.3046-6.8427 16.4919v23.554-.001c.0075 6.187 2.4675 12.118 6.8427 16.492 4.3752 4.375 10.3076 6.835 16.4934 6.841h58.4951c-3.045 3.808-6.597 7.183-10.554 10.031h-62.3086c-14.0156-10.045-22.3345-26.226-22.3467-43.4689zm-20.0626 86.9376c.0074-5.626 2.0376-11.062 5.7203-15.317 3.6841-4.253 8.7744-7.04 14.3423-7.852v66.639h-20.0626zm26.7501-24.961 4.859-3.241v.001c1.8107 2.971 5.0367 4.788 8.5161 4.795h66.8751c3.48-.007 6.706-1.824 8.516-4.795l4.859 3.24v68.43h-6.687v-39.598c-.006-5.458-2.178-10.691-6.037-14.551-3.86-3.859-9.092-6.03-14.551-6.037h-39.0746c-5.4589.006-10.6913 2.178-14.5513 6.037-3.8589 3.861-6.0306 9.093-6.0368 14.551v39.598h-6.6875zm23.4064 68.43v-10.031h46.8128v10.031zm53.4998 0v-13.375c0-.886-.352-1.737-.979-2.364s-1.478-.98-2.364-.98h-53.5006c-1.8465 0-3.3438 1.498-3.3438 3.344v13.375h-3.3437v-39.598c.0045-3.685 1.4704-7.219 4.0767-9.823 2.6049-2.607 6.138-4.072 9.8238-4.077h39.0746c3.685.004 7.219 1.47 9.823 4.077 2.607 2.605 4.073 6.138 4.077 9.823v39.598zm43.469 0h-20.062v-66.638c5.568.812 10.658 3.599 14.342 7.852 3.683 4.254 5.713 9.691 5.72 15.317z"/><path d="m231.661 21h-103.657c-1.847 0-3.344 1.4972-3.344 3.3438v13.375h6.688v-10.0313h96.969v157.1575h-10.031c-1.092 0-2.114.532-2.74 1.427l-17.323 24.748v-22.832c0-.886-.352-1.737-.979-2.364s-1.478-.979-2.365-.979h-6.687v6.687h3.343v30.094c.002 1.459.948 2.748 2.34 3.187 1.391.438 2.906-.076 3.743-1.27l22.41-32.011h11.633c.886 0 1.737-.352 2.364-.979s.979-1.478.979-2.365v-163.8442c0-.8867-.352-1.7376-.979-2.3646-.627-.6269-1.478-.9792-2.364-.9792z"/><path d="m144.723 41.0626h16.719v6.6876h-16.719z"/><path d="m168.129 41.0626h46.813v6.6876h-46.813z"/><path d="m161.442 61.1252h33.437v6.6876h-33.437z"/><path d="m201.567 61.1252h13.375v6.6876h-13.375z"/><path d="m168.129 81.1877h46.813v6.6876h-46.813z"/><path d="m168.129 101.25h6.688v6.688h-6.688z"/><path d="m181.504 101.25h33.438v6.688h-33.438z"/><path d="m164.785 121.313h36.782v6.688h-36.782z"/><path d="m208.254 121.313h6.688v6.688h-6.688z"/><path d="m158.098 141.376h43.469v6.687h-43.469z"/><path d="m87.8787 181.501c-3.5467 0-6.9489 1.409-9.4581 3.917-2.5078 2.509-3.9169 5.911-3.9169 9.458s1.4091 6.949 3.9169 9.458c2.5094 2.508 5.9114 3.917 9.4581 3.917s6.9489-1.409 9.4581-3.917c2.5078-2.509 3.9172-5.911 3.9172-9.458s-1.4094-6.949-3.9172-9.458c-2.5093-2.508-5.9114-3.917-9.4581-3.917zm0 20.062c-1.7734 0-3.4751-.704-4.729-1.958s-1.9585-2.956-1.9585-4.729.7046-3.475 1.9585-4.729 2.9556-1.959 4.729-1.959 3.4752.705 4.7291 1.959 1.9585 2.956 1.9585 4.729-.7046 3.475-1.9585 4.729-2.9557 1.958-4.7291 1.958z"/><path d="m104.598 184.845h20.062v6.687h-20.062z"/><path d="m104.598 198.22h20.062v6.687h-20.062z"/></g></svg>

<svg xmlns="http://www.w3.org/2000/svg" width="256" height="256" fill="none" viewBox="0 0 256 256"><path fill="#000" d="M152.507 154.808L144.528 149.488C144.039 147.034 142.649 144.851 140.632 143.369C153.085 132.596 160.58 117.192 161.371 100.744C162.164 84.2989 156.184 68.2457 144.824 56.3278C133.466 44.4094 117.719 37.6638 101.252 37.6638C84.7853 37.6638 69.0398 44.4094 57.6798 56.3278C46.3198 68.2472 40.34 84.3004 41.1325 100.744C41.9237 117.19 49.419 132.594 61.8715 143.369C59.8548 144.851 58.465 147.034 57.9756 149.488L49.9968 154.808C42.2167 155.092 34.8497 158.38 29.4431 163.981C24.0365 169.582 21.0092 177.061 21 184.845V231.658C21 232.545 21.3523 233.396 21.9792 234.023C22.6062 234.65 23.4571 235.002 24.3438 235.002H178.157C179.044 235.002 179.895 234.65 180.522 234.023C181.148 233.396 181.501 232.545 181.501 231.658V184.845C181.492 177.061 178.465 169.582 173.058 163.981C167.651 158.38 160.284 155.092 152.504 154.808H152.507ZM69.039 148.064H134.692C136.538 148.064 138.035 149.561 138.035 151.408C138.035 153.254 136.538 154.751 134.692 154.751H67.8162C65.9696 154.751 64.4724 153.254 64.4724 151.408C64.4724 149.561 65.9696 148.064 67.8162 148.064H69.039ZM147.551 124.658H84.4624C80.3903 124.646 76.4626 123.138 73.4295 120.42C70.3962 117.703 68.4662 113.965 68.0076 109.918C81.659 115.867 96.3907 118.935 111.282 118.93C125.693 118.934 139.959 116.062 153.245 110.484C152.034 115.456 150.116 120.23 147.547 124.658H147.551ZM154.526 102.565C140.956 108.933 126.148 112.226 111.161 112.208C96.1736 112.19 81.3712 108.861 67.8177 102.462V84.4594C67.8237 80.0452 69.5792 75.8149 72.7004 72.6935C75.8217 69.5736 80.0521 67.8181 84.4662 67.8135H145.453C151.522 76.6747 154.766 87.1672 154.756 97.9074C154.756 99.4718 154.662 101.024 154.529 102.565H154.526ZM47.7513 97.9074C47.7319 83.556 53.488 69.8003 63.7207 59.7392C73.9534 49.6765 87.8035 44.1549 102.153 44.4159C116.501 44.6757 130.142 50.6988 140.002 61.126H84.4609C78.2747 61.132 72.3427 63.592 67.9675 67.9671C63.5923 72.3408 61.1321 78.2717 61.1248 84.459V108.013V108.012C61.1323 114.199 63.5923 120.13 67.9675 124.504C72.3427 128.879 78.2751 131.339 84.4609 131.345H142.956C139.911 135.153 136.359 138.528 132.402 141.376H70.0934C56.0778 131.331 47.7589 115.15 47.7467 97.9071L47.7513 97.9074ZM27.6887 184.845C27.6961 179.219 29.7263 173.783 33.409 169.528C37.0931 165.275 42.1834 162.488 47.7513 161.676V228.315H27.6887V184.845ZM54.4388 159.884L59.2978 156.643V156.644C61.1085 159.615 64.3345 161.432 67.8139 161.439H134.689C138.169 161.432 141.395 159.615 143.205 156.644L148.064 159.884V228.314H141.377V188.716C141.371 183.258 139.199 178.025 135.34 174.165C131.48 170.306 126.248 168.135 120.789 168.128H81.7144C76.2555 168.134 71.0231 170.306 67.1631 174.165C63.3042 178.026 61.1325 183.258 61.1263 188.716V228.314H54.4388V159.884ZM77.8452 228.314V218.283H124.658V228.314H77.8452ZM131.345 228.314V214.939C131.345 214.053 130.993 213.202 130.366 212.575C129.739 211.948 128.888 211.595 128.002 211.595H74.5014C72.6549 211.595 71.1576 213.093 71.1576 214.939V228.314H67.8139V188.716C67.8184 185.031 69.2843 181.497 71.8906 178.893C74.4955 176.286 78.0286 174.821 81.7144 174.816H120.789C124.474 174.82 128.008 176.286 130.612 178.893C133.219 181.498 134.685 185.031 134.689 188.716V228.314H131.345ZM174.814 228.314H154.752V161.676C160.32 162.488 165.41 165.275 169.094 169.528C172.777 173.782 174.807 179.219 174.814 184.845V228.314Z"/><path fill="#000" d="M231.661 21H128.004C126.157 21 124.66 22.4972 124.66 24.3438V37.7188H131.348V27.6875H228.317V184.845H218.286C217.194 184.845 216.172 185.377 215.546 186.272L198.223 211.02V188.188C198.223 187.302 197.871 186.451 197.244 185.824C196.617 185.197 195.766 184.845 194.879 184.845H188.192V191.532H191.535V221.626C191.537 223.085 192.483 224.374 193.875 224.813C195.266 225.251 196.781 224.737 197.618 223.543L220.028 191.532H231.661C232.547 191.532 233.398 191.18 234.025 190.553C234.652 189.926 235.004 189.075 235.004 188.188V24.3438C235.004 23.4571 234.652 22.6062 234.025 21.9792C233.398 21.3523 232.547 21 231.661 21V21Z"/><path fill="#000" d="M144.723 41.0626H161.442V47.7502H144.723V41.0626Z"/><path fill="#000" d="M168.129 41.0626H214.942V47.7502H168.129V41.0626Z"/><path fill="#000" d="M161.442 61.1252H194.879V67.8128H161.442V61.1252Z"/><path fill="#000" d="M201.567 61.1252H214.942V67.8128H201.567V61.1252Z"/><path fill="#000" d="M168.129 81.1877H214.942V87.8753H168.129V81.1877Z"/><path fill="#000" d="M168.129 101.25H174.817V107.938H168.129V101.25Z"/><path fill="#000" d="M181.504 101.25H214.942V107.938H181.504V101.25Z"/><path fill="#000" d="M164.785 121.313H201.567V128.001H164.785V121.313Z"/><path fill="#000" d="M208.254 121.313H214.942V128.001H208.254V121.313Z"/><path fill="#000" d="M158.098 141.376H201.567V148.063H158.098V141.376Z"/><path fill="#000" d="M87.8787 181.501C84.332 181.501 80.9298 182.91 78.4206 185.418C75.9128 187.927 74.5037 191.329 74.5037 194.876C74.5037 198.423 75.9128 201.825 78.4206 204.334C80.93 206.842 84.332 208.251 87.8787 208.251C91.4254 208.251 94.8276 206.842 97.3368 204.334C99.8446 201.825 101.254 198.423 101.254 194.876C101.254 191.329 99.8446 187.927 97.3368 185.418C94.8275 182.91 91.4254 181.501 87.8787 181.501ZM87.8787 201.563C86.1053 201.563 84.4036 200.859 83.1497 199.605C81.8958 198.351 81.1912 196.649 81.1912 194.876C81.1912 193.103 81.8958 191.401 83.1497 190.147C84.4036 188.893 86.1053 188.188 87.8787 188.188C89.6521 188.188 91.3539 188.893 92.6078 190.147C93.8617 191.401 94.5663 193.103 94.5663 194.876C94.5663 196.649 93.8617 198.351 92.6078 199.605C91.3539 200.859 89.6521 201.563 87.8787 201.563Z"/><path fill="#000" d="M104.598 184.845H124.66V191.532H104.598V184.845Z"/><path fill="#000" d="M104.598 198.22H124.66V204.907H104.598V198.22Z"/></svg>
